icons/svg/shields/h_topo_garden_shield.svg

<?xml version="1.0" encoding="UTF-8" standalone="no"?>
<svg
   xmlns:dc="http://purl.org/dc/elements/1.1/"
   xmlns:cc="http://creativecommons.org/ns#"
   xmlns:rdf="http://www.w3.org/1999/02/22-rdf-syntax-ns#"
   xmlns:svg="http://www.w3.org/2000/svg"
   xmlns="http://www.w3.org/2000/svg"
   xmlns:sodipodi="http://sodipodi.sourceforge.net/DTD/sodipodi-0.dtd"
   xmlns:inkscape="http://www.inkscape.org/namespaces/inkscape"
   width="16"
   height="16"
   id="svg2"
   version="1.1"
   inkscape:version="0.91 r13725"
   sodipodi:docname="h_topo_garden_shield.svg">
  <defs
     id="defs13" />
  <sodipodi:namedview
     pagecolor="#ffffff"
     bordercolor="#666666"
     borderopacity="1"
     objecttolerance="10"
     gridtolerance="10"
     guidetolerance="10"
     inkscape:pageopacity="0"
     inkscape:pageshadow="2"
     inkscape:window-width="1920"
     inkscape:window-height="1006"
     id="namedview11"
     showgrid="false"
     inkscape:zoom="26.041379"
     inkscape:cx="8.1752491"
     inkscape:cy="7.9930951"
     inkscape:window-x="1920"
     inkscape:window-y="0"
     inkscape:window-maximized="1"
     inkscape:current-layer="g5" />
  <metadata
     id="metadata2975">image/svg+xmlen<rdf:RDF>
  <cc:Work
     rdf:about="">
    <dc:format>image/svg+xml</dc:format>
    <dc:type
       rdf:resource="http://purl.org/dc/dcmitype/StillImage" />
    <dc:title />
  </cc:Work>
</rdf:RDF>
</metadata>
  <g
     id="g5"
     style="fill:#2f2f2f;fill-opacity:1;stroke:#fefefe;stroke-width:65.80000305;stroke-linecap:butt;stroke-linejoin:round;stroke-miterlimit:4;stroke-opacity:0.68181817;stroke-dasharray:none"
     transform="translate(7.413675,-564)">
    <title
       id="title7">Layer 1</title>
    <path
       transform="translate(-7.413675,564)"
       style="fill:#ffffff;fill-opacity:1;stroke:none;stroke-width:0.78325456;color:#000000;clip-rule:nonzero;display:inline;overflow:visible;visibility:visible;opacity:1;isolation:auto;mix-blend-mode:normal;color-interpolation:sRGB;color-interpolation-filters:linearRGB;solid-color:#000000;solid-opacity:1;fill-rule:nonzero;stroke-linecap:butt;stroke-linejoin:miter;stroke-miterlimit:4;stroke-dasharray:none;stroke-dashoffset:0;stroke-opacity:1;marker:none;filter-blend-mode:normal;filter-gaussianBlur-deviation:0;color-rendering:auto;image-rendering:auto;shape-rendering:auto;text-rendering:auto;enable-background:accumulate"
       d="m 11.035156,2.2285156 c -0.03868,0.00297 -0.07716,0.00819 -0.115234,0.015625 -0.06056,0.010143 -0.120052,0.025835 -0.177734,0.046875 -0.125618,0.046978 -0.240521,0.1187092 -0.337891,0.2109375 -0.02392,0.022307 -0.04673,0.045772 -0.06836,0.070312 l 0,0.00195 c -0.03463,0.04041 -0.06597,0.083515 -0.09375,0.1289062 -0.0046,0.00646 -0.0092,0.012967 -0.01367,0.019531 -0.0026,0.00439 -0.104581,0.1839193 -0.138672,0.2304688 -0.196745,4.805e-4 -0.3889903,0.058902 -0.5527356,0.1679727 0,0 -0.4322604,0.306407 -0.7675782,0.8261718 C 8.4342135,4.4670305 8.125,5.2621237 8.125,6.3027344 8.125,7.0140509 8.3616704,7.6516778 8.6855469,8.2070312 8.2372466,7.9845147 7.6934988,8.1271234 7.4121094,8.5410156 7.3167056,8.5023595 7.2159123,8.4786434 7.1132812,8.4707031 7.2009926,8.2182802 7.1955243,7.9489564 7.2050781,7.6816406 7.7227657,6.9611914 7.8954326,6.1439999 7.7363281,5.6113281 l 0,-0.00195 C 7.5230564,4.9011922 6.9149811,4.4521288 6.2363281,4.203125 6.107691,3.9778415 6.0355814,3.7625812 5.7421875,3.53125 5.3720224,3.2393894 4.9060195,3.0785041 4.4375,3.0742188 3.8300483,3.065506 3.3072221,3.3192089 2.96875,3.6035156 2.7646834,3.7749256 2.6917448,3.9258197 2.578125,4.0878906 1.8698808,4.3077116 1.2305696,4.7467876 0.9609375,5.453125 l -0.005859,0.017578 c -0.25105924,0.6968098 -0.0590388,1.4454708 0.3300781,2.0644531 -0.025969,0.5374452 0.1193259,1.0282555 0.421875,1.46875 -0.5062732,0.032651 -0.90815526,0.4387278 -0.93554722,0.9453127 0,0 -0.0780866,0.9188942 0.19921874,1.8476562 0.34215388,1.144429 1.34355098,1.657529 2.36328128,1.837891 0.1628519,0.107647 0.3536149,0.165351 0.5488281,0.166015 l 0.5800781,0 c 0.00846,1.07e-4 0.016928,1.07e-4 0.025391,0 0.7237224,-0.01884 1.5500248,-0.30966 2.2890626,-1.011719 0.4683227,-0.444889 0.7952629,-1.123865 1.0136718,-1.90039 0.055286,0.179172 0.077274,0.170818 0.125,0.367187 0.166452,0.683974 0.4092011,1.294192 0.890625,1.767579 0.3099945,0.304819 0.7604829,0.35045 1.1796875,0.458984 0.1845955,0.170417 0.4265015,0.265228 0.6777335,0.265625 l 0.857422,0 c 0.01043,-5.04e-4 0.02085,-0.0012 0.03125,-0.002 0.93578,-0.03 1.729878,-0.620996 2.201172,-1.292969 0.471295,-0.671973 0.818767,-1.453284 1.355469,-2.410156 0.439581,-0.7864016 -0.301716,-1.7080169 -1.164063,-1.4472189 -0.601376,0.1829804 -1.019349,0.3989938 -1.421874,0.6464844 l 0,-0.1542969 c 0.885937,-0.6019278 1.537109,-1.55432 1.537109,-2.7851562 0,-1.0406107 -0.309214,-1.8357039 -0.644531,-2.3554688 C 13.080698,3.4275008 12.648438,3.1210938 12.648438,3.1210938 12.484356,3.010967 12.291361,2.9518453 12.09375,2.9511719 12.06025,2.9054729 11.959576,2.7270039 11.957031,2.7226562 11.906338,2.636938 11.843142,2.5592605 11.769531,2.4921875 11.720863,2.4473444 11.667869,2.4074358 11.611328,2.3730469 l -0.002,-0.00195 c -0.05697,-0.033872 -0.11716,-0.062004 -0.179687,-0.083984 -0.05711,-0.020262 -0.11595,-0.035297 -0.175782,-0.044922 l -0.01758,-0.00391 -0.002,0 c -0.03237,-0.00485 -0.06497,-0.00811 -0.09766,-0.00977 l -0.002,0 c -0.03318,-0.00165 -0.06643,-0.00165 -0.09961,0 z"
       id="path4160"
       inkscape:connector-curvature="0"
       sodipodi:nodetypes="ccccccccccsscccccccscscccccccccccsccsccccsccccsscccccccccccccc" />
  </g>
</svg>

<svg width="16" height="16" viewBox="0 0 16 16" fill="none" xmlns="http://www.w3.org/2000/svg">
<path d="M11.0352 2.22854C10.9965 2.23151 10.958 2.23673 10.9199 2.24416C10.8594 2.25431 10.7999 2.27 10.7422 2.29104C10.6166 2.33802 10.5017 2.40975 10.4043 2.50197C10.3804 2.52428 10.3576 2.54775 10.3359 2.57229V2.57424C10.3013 2.61465 10.27 2.65775 10.2422 2.70314C10.2376 2.7096 10.233 2.71611 10.2285 2.72267C10.2259 2.72706 10.1239 2.90659 10.0898 2.95314C9.8931 2.95362 9.70086 3.01204 9.53711 3.12112C9.53711 3.12112 9.10485 3.42752 8.76954 3.94729C8.43422 4.46705 8.125 5.26215 8.125 6.30276C8.125 7.01407 8.36167 7.6517 8.68555 8.20705C8.23725 7.98454 7.6935 8.12714 7.41211 8.54104C7.31671 8.50238 7.21592 8.47866 7.11329 8.47072C7.201 8.2183 7.19553 7.94898 7.20508 7.68166C7.72277 6.96121 7.89544 6.14402 7.73633 5.61135V5.6094C7.52306 4.90121 6.91498 4.45215 6.23633 4.20315C6.10769 3.97786 6.03559 3.7626 5.74219 3.53127C5.37203 3.23941 4.90602 3.07853 4.4375 3.07424C3.83005 3.06553 3.30723 3.31923 2.96875 3.60354C2.76469 3.77495 2.69175 3.92584 2.57813 4.08791C1.86988 4.30773 1.23057 4.74681 0.960941 5.45315L0.955082 5.47072C0.704023 6.16753 0.896044 6.9162 1.28516 7.53518C1.25919 8.07262 1.40449 8.56343 1.70704 9.00393C1.20076 9.03658 0.79888 9.44266 0.771488 9.94924C0.771488 9.94924 0.693402 10.8681 0.970707 11.7969C1.31286 12.9413 2.31426 13.4544 3.33399 13.6348C3.49684 13.7424 3.6876 13.8001 3.88282 13.8008H4.46289C4.47135 13.8009 4.47982 13.8009 4.48829 13.8008C5.21201 13.782 6.03831 13.4911 6.77735 12.7891C7.24567 12.3442 7.57261 11.6652 7.79102 10.8887C7.84631 11.0679 7.86829 11.0595 7.91602 11.2559C8.08247 11.9399 8.32522 12.5501 8.80664 13.0235C9.11664 13.3283 9.56713 13.3739 9.98633 13.4824C10.1709 13.6529 10.4128 13.7477 10.6641 13.7481H11.5215C11.5319 13.7476 11.5423 13.7469 11.5527 13.7461C12.4885 13.7161 13.2826 13.1251 13.7539 12.4531C14.2252 11.7811 14.5727 10.9998 15.1094 10.0429C15.549 9.25654 14.8077 8.33493 13.9453 8.59572C13.3439 8.7787 12.926 8.99472 12.5234 9.24221V9.08791C13.4094 8.48598 14.0606 7.53359 14.0606 6.30276C14.0606 5.26215 13.7513 4.46705 13.416 3.94729C13.0807 3.42752 12.6484 3.12112 12.6484 3.12112C12.4844 3.01099 12.2914 2.95187 12.0938 2.95119C12.0603 2.90549 11.9596 2.72703 11.957 2.72268C11.9063 2.63696 11.8431 2.55928 11.7695 2.49221C11.7209 2.44737 11.6679 2.40746 11.6113 2.37307L11.6093 2.37112C11.5524 2.33725 11.4922 2.30911 11.4296 2.28713C11.3725 2.26687 11.3137 2.25184 11.2539 2.24221L11.2363 2.2383H11.2343C11.2019 2.23345 11.1693 2.23019 11.1366 2.22853H11.1346C11.1014 2.22688 11.0682 2.22688 11.035 2.22853L11.0352 2.22854Z" fill="white"/>
</svg>
